X:25
T:Irish Round or Kinington Wells
T:John Malchairs Third Collection of Tunes
%%VWML:Malchair-3619-p25
F:https://www.vwml.org/record/Malchair/3619/p25
F:www.vwml.org/topics/historic-dance-and-tune-books/Malchair
Z:Peter Dunk Feb 2020
M:6/4
L:1/4
K:Dm
A2^c d2e|f3/g/a e2d|(^cA)f e2d|ede D3|
F3/G/F c3/d/c|def c3/d/A|B3/A/G AGA|F2E D3||
f2a a2g|g2f ece|f2d gca|agf g3/f/e|
f2a a2g|g2f ece|f2d gcA|agf g3/f/e|
L:1/8
a2(ba)(gf) g2(ag)(fe)|f2(gf)(ed) e2(fe)(dc)|a2(ba)(gf) g2(ag)(fe)|f2(gf)(ed) e2(fe)(dc)|
L:1/4
dDD DEF|FGA ABc|cCC CDE|FGA D3|
W:
T:B. of Chester's Jigg or the fit's come on me now, The
T:John Malchairs Third Collection of Tunes
F:https://www.vwml.org/record/Malchair/3619/p25
F:www.vwml.org/topics/historic-dance-and-tune-books/Malchair
Z:Peter Dunk Feb 2020
M:9/4
L:1/4
K:F
F2c (cA)c c2A|F2c (cA)c(d/e/f)c|F2c (cA)c d2e|(fc)d (cA)F G2F||
(fc)f (ec)f e3|d3/e/d f3/g/ a/g/ g2f|(fc)f (fa)a g2f|(df)d (cA)F G2F|]

